X: 2387
T: MARSHALL HILL'S HORNPIPE
%R: hornpipe, reel
B: James Kerr "Merry Melodies" v.2 p.43 #387
Z: 2016 John Chambers <jc:trillian.mit.edu>
M: C
L: 1/8
K: Bb
(ude) |\
f>bd>f B>dF>B | D>B,D>F B2 (3(FGA) |\
B>FD>F d>cB>d | f>ed>e c2 (d>e) |\
f>bd>f B>dF>G | D>B,D>F B2 (3(FGA) |\
B>FB>d c>eA>c | B2B2B2 :|
|: (uBA) |\
B>df>a b>ag>^f | g>^fg>a g2 (cB) |\
A>FA>c e>gf>e | d>cd>e f2 (dc) |\
B>df>a b>fd>D | E>Gc>e g>ec>E |\
D>FB>d c>eA>c | B2b2B2 :|

%%sep 1 1 500
%%sep 1 1 500

